shared/images/iconfont/20-kb-iconfont-compose-16.svg

<?xml version="1.0" encoding="UTF-8"?>
<svg width="16px" height="16px" viewBox="0 0 16 16" version="1.1" xmlns="http://www.w3.org/2000/svg" xmlns:xlink="http://www.w3.org/1999/xlink">
    <!-- Generator: sketchtool 57.1 (101010) - https://sketch.com -->
    <title>93B1071D-AD96-40EC-ACE7-924389378CAA</title>
    <desc>Created with sketchtool.</desc>
    <g id="Symbols" stroke="none" stroke-width="1" fill="none" fill-rule="evenodd">
        <g id="20-kb-iconfont-compose-16">
            <g>
                <rect id="icon-area" opacity="0" x="0" y="0" width="16" height="16"></rect>
                <path d="M8.00802095,0 C11.3390524,0 14.4924094,2.18660111 15.6305766,5.55490261 C15.8614364,6.23811126 15.6538965,6.85707846 14.9345243,6.96968283 C14.2187093,7.08173039 13.8197007,6.47891193 13.7467591,6.23811126 C12.8906777,3.41194636 10.0445414,1.99848375 8.00802095,1.99848375 C4.8540047,1.99848375 2,4.84916536 2,8 C2,9.05256391 2.25897124,10.0889061 2.71314042,10.8260437 C3.41555826,11.966607 3.41555826,13.1191984 3.00849745,14.0093162 L3.00849745,14.0093162 L7.00465811,14.0093162 C7.55437026,14.0093162 8,14.454946 8,15.0046581 C8,15.5543703 7.55437026,16 7.00465811,16 L7.00465811,16 L1.76062061,16 C0.539969413,16 0.0331760868,15.763316 0.0331760868,14.9827501 C0.0331760868,14.1096135 1.94027783,13.4081681 1.03308346,11.9350357 C0.332953627,10.797901 0,9.42964693 0,7.99994286 C0,3.46451197 3.58530538,0 8.00802095,0 Z M12.0264511,8 C12.5750837,8 13.0198383,8.44475461 13.0198383,8.99338722 L13.0189022,10.999 L15,11 C15.5522847,11 16,11.4477153 16,12 C16,12.5522847 15.5522847,13 15,13 L13.0189022,13 L13.0198383,15.0066128 C13.0198383,15.5552454 12.5750837,16 12.0264511,16 C11.4778185,16 11.0330639,15.5552454 11.0330639,15.0066128 L11.0329022,13 L9.05290223,13 C8.50061748,13 8.05290223,12.5522847 8.05290223,12 C8.05290223,11.4477153 8.50061748,11 9.05290223,11 L11.0329022,11 L11.0330639,8.99338722 C11.0330639,8.44475461 11.4778185,8 12.0264511,8 Z" id="Fill-2" fill="#000000"></path>
            </g>
        </g>
    </g>
</svg>

<svg xmlns="http://www.w3.org/2000/svg" width="16" height="16" viewBox="0 0 16 16">
    <path fill="#000" fill-rule="evenodd" d="M15.63 5.555c.231.683.024 1.302-.695 1.415-.716.112-1.115-.491-1.188-.732-.856-2.826-3.702-4.24-5.739-4.24C4.854 1.998 2 4.85 2 8c0 1.053.259 2.089.713 2.826.703 1.14.703 2.293.295 3.183h3.997a.995.995 0 0 1 0 1.99L1.76 16C.54 16 .033 15.763.033 14.983c0-.873 1.907-1.575 1-3.048C.333 10.798 0 9.43 0 8c0-4.535 3.585-8 8.008-8 3.331 0 6.484 2.187 7.623 5.555zM13.02 11H15a1 1 0 0 1 0 2h-1.98v2.007a.993.993 0 0 1-1.987 0V13h-1.98a1 1 0 0 1 0-2h1.98V8.993a.993.993 0 1 1 1.987 0V11z"/>
</svg>
